modules/themify-icons/icons/layout-width-default-alt.svg

<?xml version="1.0" encoding="utf-8"?>
<!-- Generated by IcoMoon.io -->
<!DOCTYPE svg PUBLIC "-//W3C//DTD SVG 1.1//EN" "http://www.w3.org/Graphics/SVG/1.1/DTD/svg11.dtd">
<svg version="1.1" xmlns="http://www.w3.org/2000/svg" xmlns:xlink="http://www.w3.org/1999/xlink" width="17" height="17" viewBox="0 0 17 17">
<g>
</g>
	<path d="M2 16h1v1h-1v-1zM10 17h1v-1h-1v1zM12 17h1v-1h-1v1zM4 17h1v-1h-1v1zM6 17h1v-1h-1v1zM8 17h1v-1h-1v1zM14 17h1v-1h-1v1zM14 3h1v-1h-1v1zM14 5h1v-1h-1v1zM14 13h1v-1h-1v1zM14 7h1v-1h-1v1zM14 9h1v-1h-1v1zM14 15h1v-1h-1v1zM14 11h1v-1h-1v1zM14 0v1h1v-1h-1zM12 1h1v-1h-1v1zM6 1h1v-1h-1v1zM8 1h1v-1h-1v1zM10 1h1v-1h-1v1zM4 1h1v-1h-1v1zM2 1h1v-1h-1v1zM2 13h1v-1h-1v1zM2 15h1v-1h-1v1zM2 11h1v-1h-1v1zM2 3h1v-1h-1v1zM2 5h1v-1h-1v1zM2 7h1v-1h-1v1zM2 9h1v-1h-1v1z" fill="#000000" />
</svg>

<svg xmlns="http://www.w3.org/2000/svg" width="17" height="17"><path d="M2 16h1v1H2v-1zm8 1h1v-1h-1v1zm2 0h1v-1h-1v1zm-8 0h1v-1H4v1zm2 0h1v-1H6v1zm2 0h1v-1H8v1zm6 0h1v-1h-1v1zm0-14h1V2h-1v1zm0 2h1V4h-1v1zm0 8h1v-1h-1v1zm0-6h1V6h-1v1zm0 2h1V8h-1v1zm0 6h1v-1h-1v1zm0-4h1v-1h-1v1zm0-11v1h1V0h-1zm-2 1h1V0h-1v1zM6 1h1V0H6v1zm2 0h1V0H8v1zm2 0h1V0h-1v1zM4 1h1V0H4v1zM2 1h1V0H2v1zm0 12h1v-1H2v1zm0 2h1v-1H2v1zm0-4h1v-1H2v1zm0-8h1V2H2v1zm0 2h1V4H2v1zm0 2h1V6H2v1zm0 2h1V8H2v1z"/></svg>
